X: 11461
Q: "Slow and with feeling."
M: 3/4
L: 1/8
K: G
=f2 |\
e2 d2 B2 | AB d2 =f2 | e2 d2 (Bc) | d4 =f2 |\
e2 d2 B2 | (AB) d2 e2 | d B3 A>G | G4 |]


